X: 1801
T: The Caithness Reel
C:
R: Reel
%Q: 232
B: RSCDS 18-1(II)
F: http://www.math.mun.ca/~bshawyer/reels/CaithnessReel.abc
Z: Bruce Shawyer
K: Eb
M: 4/4
L: 1/8
e/d/ |: c2 BG FE CD | E2 EG BG Be | c2 BG FE Cc |1 ec eG F2 Fd :|2 ec dB c2 ||
|: cd | ef gf e2 ed | cB ce f2 fg |1 ef gf e2 ed | cB GB c2 :|2 eg fg ef de | cB GB c2 c :|
%%center Book18/CaithnessReel_Eb-BS.abc

%%sep 1 1 500
%%sep 1 1 500

